X:678
T:Teetotaller's Reel #2
C:Joe Buchanan's Scottish Tome - Page 209.1
I:209 1
Z:Carl Allison
R:Reel
L:1/8
M:4/4
K:G
"G"G2 GF GABc | "C"dBge "B7"dBGA | "Em"BEED EFGA | "D7"BGAF GFED |
"G"G2 GF GABc | "C"dBge "B7"dBGA | "Em"BEED EFGA | "D7"BGAF G2 :|
B2 | "Em"Beed e2> f2 | gafg "Em"gfed | "D"Add^c d2> e2 | fdaf "Em"gfed |
"Em"Beed e2> f2 | gafg "Em"gfed | "Em"BAGF "C"EFGA | "D7"BGAF G2 :|

